X: 550
T:Maple Sugar
R:Reel
C:Ward Allen
P:ABACABACA-FINE (with Vln1 & Vln2 harmony)
M:2/4
L:1/8
K:A
A cd||"A   PART A"e2e>f|ed cB|c2c>d|c/B/A dc|"E7"cB Bc|
d>c cB/c/|"A"dc cB|c/B/A cd|e2e2|e2 e>c|dc c/B/A|
cc d>c|"E7"cB Bc|d2c>B|1,2"A"BA AG| A2||3"A FINE"B(A A/)[ce]/[df]/[gB]/|([a2c2]([a2c2])|[a2c2])z2 ||
"PART B"CD||:"A"E2 E>F|FC FA|c2 c>B|AE FE|
"E"B2 B>c|"E7"BG FG|1"A"A2 GF|EC DA:|2A2 A>B|A2 cd||
K:E
"PART C" GA||:"E"B2B>c|BG Be|g2g>f|eB cB|"B7"f2 f>g|
fd cd|1"E"e>e dc|BG Ac:|2"E DC al FINE"e2 e>f|e=d cd||


